assets/awsdatasyncagent/original.svg

<svg height="48" viewBox="0 0 48 48" width="48" xmlns="http://www.w3.org/2000/svg"><path d="m44 8.076a4.08 4.08 0 0 0 -4.076-4.076h-31.849a4.08 4.08 0 0 0 -4.075 4.076v31.784a4.084 4.084 0 0 0 4.08 4.08h31.844a4.08 4.08 0 0 0 4.076-4.079zm2 0v31.786a6.083 6.083 0 0 1 -6.076 6.076h-31.844a6.087 6.087 0 0 1 -6.08-6.078v-31.784a6.08 6.08 0 0 1 6.075-6.076h31.85a6.083 6.083 0 0 1 6.075 6.076m-12.715 4.652a1.002 1.002 0 0 0 -1.625.781v2.491h-5.85v2h6.85a1 1 0 0 0 1-1v-1.41l5.403 4.323-5.403 4.323v-1.12a1 1 0 0 0 -1-1h-17.142v-2.203a1 1 0 0 0 -1.625-.78l-8.005 6.402a1 1 0 0 0 0 1.562l8.005 6.403a1 1 0 0 0 1.058.12 1 1 0 0 0 .567-.9v-2.59h5.827v-2h-6.827a1 1 0 0 0 -1 1v1.51l-5.405-4.324 5.405-4.322v1.121a1 1 0 0 0 1 1h17.142v2.201a1.002 1.002 0 0 0 1.625.781l8.004-6.403a1 1 0 0 0 0-1.562zm-4.96 17.432h13.155v-2h-13.156zm-5.192 0h3.501v-2h-3.5zm-14.68-12.162h10.844v-2h-10.845zm12.115 0h3.348v-2h-3.348z" fill="#01a88d" fill-rule="evenodd"/></svg>

<svg xmlns="http://www.w3.org/2000/svg" width="48" height="48" viewBox="0 0 48 48"><title>Icon-Resource/Migration-and-Transfer/Res_AWS-Datasync_Agent_48</title><g id="Icon-Resource/Migration-and-Transfer/Res_AWS-Datasync_Agent_48" fill="none" fill-rule="evenodd" stroke="none" stroke-width="1"><path id="AWS-Datasync-Agent_Resource-Icon_light-bg" fill="#01a88d" d="M44 8.076A4.08 4.08 0 0 0 39.924 4H8.075A4.08 4.08 0 0 0 4 8.076V39.86a4.084 4.084 0 0 0 4.08 4.08h31.844A4.08 4.08 0 0 0 44 39.861zm2 0v31.786a6.083 6.083 0 0 1-6.076 6.076H8.08A6.087 6.087 0 0 1 2 39.86V8.076A6.08 6.08 0 0 1 8.075 2h31.85A6.083 6.083 0 0 1 46 8.076m-12.715 4.652a1.002 1.002 0 0 0-1.625.781V16h-5.85v2h6.85a1 1 0 0 0 1-1v-1.41l5.403 4.323-5.403 4.323v-1.12a1 1 0 0 0-1-1H15.518v-2.203a1 1 0 0 0-1.625-.78l-8.005 6.402a1 1 0 0 0 0 1.562l8.005 6.403a1 1 0 0 0 1.058.12 1 1 0 0 0 .567-.9v-2.59h5.827v-2h-6.827a1 1 0 0 0-1 1v1.51l-5.405-4.324 5.405-4.322v1.121a1 1 0 0 0 1 1H31.66v2.201a1.002 1.002 0 0 0 1.625.781l8.004-6.403a1 1 0 0 0 0-1.562zm-4.96 17.432H41.48v-2H28.324zm-5.192 0h3.501v-2h-3.5zM8.453 17.998h10.844v-2H8.452zm12.115 0h3.348v-2h-3.348z"/></g></svg>
